symbolic/22x22/apps/infector.svg

<svg xmlns="http://www.w3.org/2000/svg" width="22" height="22"><path style="fill:#ccc;fill-rule:evenodd" d="M5 1v4H1v12h4v4h12v-4h4V5h-4V1z"/><path style="fill:#33d533;fill-rule:evenodd" d="M2.5 1C1.669 1 1 1.669 1 2.5V5h4V1zM17 17v4h2.5c.831 0 1.5-.669 1.5-1.5V17z"/><path style="fill:#ff5b5b;fill-rule:evenodd" d="M1 17v2.5c0 .831.669 1.5 1.5 1.5H5v-4zM17 1v4h4V2.5c0-.831-.669-1.5-1.5-1.5z"/><path style="fill:#696969;fill-rule:evenodd" d="M5 1v4h4V1zm4 4v4h4V5zm4 0h4V1h-4zm4 0v4h4V5zm0 4h-4v4h4zm0 4v4h4v-4zm0 4h-4v4h4zm-4 0v-4H9v4zm-4 0H5v4h4zm-4 0v-4H1v4zm0-4h4V9H5zm0-4V5H1v4z"/><path style="opacity:.2" d="M1 19.5v.5c0 .831.669 1.5 1.5 1.5h17c.831 0 1.5-.669 1.5-1.5v-.5c0 .831-.669 1.5-1.5 1.5h-17c-.831 0-1.5-.669-1.5-1.5z"/><path style="opacity:.2;fill:#fff" d="M2.5 1C1.669 1 1 1.669 1 2.5V3c0-.831.669-1.5 1.5-1.5h17c.831 0 1.5.669 1.5 1.5v-.5c0-.831-.669-1.5-1.5-1.5z"/><path style="opacity:.2;fill-rule:evenodd" d="M1 5v.5h4V5zm8 0v.5h4V5zm8 0v.5h4V5zM5 9v.5h4V9zm8 0v.5h4V9zM1 13v.5h4V13zm8 0v.5h4V13zm8 0v.5h4V13zM5 17v.5h4V17zm8 0v.5h4V17z"/></svg>

<svg xmlns="http://www.w3.org/2000/svg" width="22" height="22" version="1.1">
 <path style="fill:#cccccc;fill-rule:evenodd" d="M 5,1 V 5 H 1 v 12 h 4 v 4 h 12 v -4 h 4 V 5 H 17 V 1 Z"/>
 <path style="fill:#33d533;fill-rule:evenodd" d="M 2.5,1 C 1.669,1 1,1.669 1,2.5 V 5 H 5 V 1 Z"/>
 <path style="fill:#33d533;fill-rule:evenodd" d="m 17,17 v 4 h 2.5 C 20.331,21 21,20.331 21,19.5 V 17 Z"/>
 <path style="fill:#ff5b5b;fill-rule:evenodd" d="m 1,17 v 2.5 C 1,20.331 1.669,21 2.5,21 H 5 v -4 z"/>
 <path style="fill:#ff5b5b;fill-rule:evenodd" d="m 17,1 v 4 h 4 V 2.5 C 21,1.669 20.331,1 19.5,1 Z"/>
 <path style="fill:#696969;fill-rule:evenodd" d="M 5,1 V 5 H 9 V 1 Z m 4,4 v 4 h 4 V 5 Z m 4,0 h 4 V 1 h -4 z m 4,0 v 4 h 4 V 5 Z m 0,4 h -4 v 4 h 4 z m 0,4 v 4 h 4 v -4 z m 0,4 h -4 v 4 h 4 z m -4,0 V 13 H 9 v 4 z M 9,17 H 5 v 4 H 9 Z M 5,17 V 13 H 1 v 4 z M 5,13 H 9 V 9 H 5 Z M 5,9 V 5 H 1 v 4 z"/>
 <path style="opacity:0.2" d="M 1,19.5 V 20 c 0,0.831 0.669,1.5 1.5,1.5 h 17 C 20.331,21.5 21,20.831 21,20 V 19.5 C 21,20.331 20.331,21 19.5,21 H 2.5 C 1.669,21 1,20.331 1,19.5 Z"/>
 <path style="opacity:0.2;fill:#ffffff" d="M 2.5,1 C 1.669,1 1,1.669 1,2.5 V 3 C 1,2.169 1.669,1.5 2.5,1.5 h 17 C 20.331,1.5 21,2.169 21,3 V 2.5 C 21,1.669 20.331,1 19.5,1 Z"/>
 <path style="opacity:0.2;fill-rule:evenodd" d="M 1,5 V 5.5 H 5 V 5 Z m 8,0 v 0.5 h 4 V 5 Z m 8,0 v 0.5 h 4 V 5 Z M 5,9 V 9.5 H 9 V 9 Z m 8,0 v 0.5 h 4 V 9 Z M 1,13 v 0.5 H 5 V 13 Z m 8,0 v 0.5 h 4 V 13 Z m 8,0 v 0.5 h 4 V 13 Z M 5,17 v 0.5 H 9 V 17 Z m 8,0 v 0.5 h 4 V 17 Z"/>
</svg>
